X:1
T:Title
T:Picking of Sticks
T:Playford Arangement - Lavena is the tune. Traditional Englich Country Dance 
T:D/G Voice - use 'g' drones
C:Composer
L:1/8
Q:1/4=110
M:6/8
K:G
V:1 treble nm="Piano" snm="Pno."
V:1
"_Keys:""^\n" G |: B>cd d>cd | c2 A A2 A | A>Bc c>dc | B2 G G2 G ::"_Keys:" A>GA F>GA | B>cd d>cB | %7
w: 3|5 6 7 7 6 7|6 4 4 4|4 5 6 6 7 6|5 3 3 3|4 3 4 2 3 4|5 6 7 7 6 5|
 A>Bc c>Bc | B2 G G3 :| z :| %10
w: 4 5 6 6 5 6|5 3 3||

